app/dist/common/images/tcl-technology-gro.svg

<svg height="18" viewBox="0 0 18 18" width="18" xmlns="http://www.w3.org/2000/svg"><path d="m0 9a9 9 0 1 1 18 0 9 9 0 0 1 -18 0z" fill="#fe0000"/><path d="m2 7v1h1.5v3h1v-3h1.5v-1zm7.2 3c-.6 0-1.2-.2-1.2-1s.63-1 1.2-1c.7 0 .91.22.96.5h1.07c-.05-1.1-1.09-1.5-2-1.5-1.16 0-2.23.66-2.23 2 0 1.3 1.07 2 2.2 2 .93 0 1.97-.38 2.04-1.5h-1.08c-.03.22-.22.5-.95.5zm4.8 0v-3h-1v4h3v-1z" fill="#f0f3fa"/></svg>

<!-- by TradingView --><svg width="18" height="18" viewBox="0 0 18 18" xmlns="http://www.w3.org/2000/svg"><path d="M0 9a9 9 0 1 1 18 0A9 9 0 0 1 0 9Z" fill="#FE0000"/><path d="M2 7v1h1.5v3h1V8H6V7H2ZM9.2 10C8.6 10 8 9.8 8 9s.63-1 1.2-1c.7 0 .91.22.96.5h1.07c-.05-1.1-1.09-1.5-2-1.5C8.07 7 7 7.66 7 9c0 1.3 1.07 2 2.2 2 .93 0 1.97-.38 2.04-1.5h-1.08c-.03.22-.22.5-.95.5ZM14 10V7h-1v4h3v-1h-2Z" fill="#F0F3FA"/></svg>
